assets/images/stats/downloads.svg

<svg viewBox="0 0 57 63.03" xmlns="http://www.w3.org/2000/svg"><g fill-rule="evenodd" transform="translate(0 .03)"><path d="m6 47v16h51v-16h-9v8h-33v-8z" fill="#2dbf91"/><path d="m52.5 62h-51a1.5 1.5 0 0 1 -1.5-1.5v-16a1.5 1.5 0 0 1 1.5-1.5h9a1.5 1.5 0 0 1 1.5 1.5v6.5h30v-6.5a1.5 1.5 0 0 1 1.5-1.5h9a1.5 1.5 0 0 1 1.5 1.5v16a1.5 1.5 0 0 1 -1.5 1.5zm-49.5-3h48v-13h-6v6.5a1.5 1.5 0 0 1 -1.5 1.5h-33a1.5 1.5 0 0 1 -1.5-1.5v-6.5h-6z"/><path d="m32.44 46.53-11.44-17.01a2.9 2.9 0 0 1 2.41-4.52h3.59v-17.79a4.06 4.06 0 0 1 3.67-3.72 4 4 0 0 1 4.33 3.59v17.92h6.48a2.9 2.9 0 0 1 2.38 4.52z" fill="#2dbf91"/><path d="m27.44 46a1.51 1.51 0 0 1 -1.25-.68l-11.42-17.23a4.59 4.59 0 0 1 -.17-4.72 4.3 4.3 0 0 1 3.81-2.37h2.59v-15.79a5.54 5.54 0 0 1 5-5.21 5.47 5.47 0 0 1 6 5.08v15.92h4.48a4.28 4.28 0 0 1 3.8 2.37 4.58 4.58 0 0 1 -.18 4.73l-11.41 17.25a1.5 1.5 0 0 1 -1.25.65zm-9-22a1.33 1.33 0 0 0 -1.16.78 1.6 1.6 0 0 0 0 1.65l10.16 15.38 10.17-15.37a1.62 1.62 0 0 0 0-1.66 1.36 1.36 0 0 0 -1.13-.78h-6a1.5 1.5 0 0 1 -1.48-1.5v-17.42a2.47 2.47 0 0 0 -2.69-2.08 2.61 2.61 0 0 0 -2.31 2.21v17.29a1.5 1.5 0 0 1 -1.5 1.5z"/></g></svg>

<svg id="Layer_1" data-name="Layer 1" xmlns="http://www.w3.org/2000/svg" viewBox="0 0 57 63.03"><title>downloads</title><g id="group-43svg"><path id="path-1" d="M6,47V63H57V47H48v8H15V47Z" transform="translate(0 0.03)" style="fill:#2dbf91;fill-rule:evenodd"/><path id="path-2" d="M52.5,62H1.5A1.5,1.5,0,0,1,0,60.5v-16A1.5,1.5,0,0,1,1.5,43h9A1.5,1.5,0,0,1,12,44.5V51H42V44.5A1.5,1.5,0,0,1,43.5,43h9A1.5,1.5,0,0,1,54,44.5v16A1.5,1.5,0,0,1,52.5,62ZM3,59H51V46H45v6.5A1.5,1.5,0,0,1,43.5,54h-33A1.5,1.5,0,0,1,9,52.5V46H3Z" transform="translate(0 0.03)" style="fill-rule:evenodd"/><path id="path-3" d="M32.44,46.53,21,29.52A2.9,2.9,0,0,1,23.41,25H27V7.21a4.06,4.06,0,0,1,3.67-3.72A4,4,0,0,1,35,7.08V25h6.48a2.9,2.9,0,0,1,2.38,4.52Z" transform="translate(0 0.03)" style="fill:#2dbf91;fill-rule:evenodd"/><path id="path-4" d="M27.44,46a1.51,1.51,0,0,1-1.25-.68L14.77,28.09a4.59,4.59,0,0,1-.17-4.72A4.3,4.3,0,0,1,18.41,21H21V5.21A5.54,5.54,0,0,1,26,0a5.47,5.47,0,0,1,6,5.08V21h4.48a4.28,4.28,0,0,1,3.8,2.37,4.58,4.58,0,0,1-.18,4.73L28.69,45.35A1.5,1.5,0,0,1,27.44,46Zm-9-22a1.33,1.33,0,0,0-1.16.78,1.6,1.6,0,0,0,0,1.65L27.44,41.81,37.61,26.44a1.62,1.62,0,0,0,0-1.66A1.36,1.36,0,0,0,36.48,24h-6A1.5,1.5,0,0,1,29,22.5V5.08A2.47,2.47,0,0,0,26.31,3,2.61,2.61,0,0,0,24,5.21V22.5A1.5,1.5,0,0,1,22.5,24Z" transform="translate(0 0.03)" style="fill-rule:evenodd"/></g></svg>
